svg/ionicons/bookmarks.svg

<svg xmlns="http://www.w3.org/2000/svg" width="512" height="512" viewBox="0 0 512 512"><path d="M400 0H176a64.11 64.11 0 00-62 48h228a74 74 0 0174 74v304.89l22 17.6a16 16 0 0019.34.5 16.41 16.41 0 006.66-13.42V64a64 64 0 00-64-64"/><path d="M320 80H112a64 64 0 00-64 64v351.62A16.36 16.36 0 0054.6 509a16 16 0 0019.71-.71L216 388.92l141.69 119.32a16 16 0 0019.6.79 16.4 16.4 0 006.71-13.44V144a64 64 0 00-64-64"/></svg>

<svg xmlns="http://www.w3.org/2000/svg" width="512" height="512" viewBox="0 0 512 512"><path d="M400,0H176a64.11,64.11,0,0,0-62,48H342a74,74,0,0,1,74,74V426.89l22,17.6a16,16,0,0,0,19.34.5A16.41,16.41,0,0,0,464,431.57V64A64,64,0,0,0,400,0Z"/><path d="M320,80H112a64,64,0,0,0-64,64V495.62A16.36,16.36,0,0,0,54.6,509a16,16,0,0,0,19.71-.71L216,388.92,357.69,508.24a16,16,0,0,0,19.6.79A16.4,16.4,0,0,0,384,495.59V144A64,64,0,0,0,320,80Z"/></svg>
